X: 1
T: the Peregrinaceous Artist
C: Ishmael Stefanov 2912
R: reel
Z: 2017 John Chambers <jc:trillian.mit.edu>
M: C|
L: 1/8
K: D
|:\
"D"a2fd- dafd | "A"g2ec- cgec |\
"D"dAeA fAgA | "A"abag efga |
"Em"b2ge- ebge | "D"a2fd- dfed |\
"A"cAdA "Em"efga- | "A7"agec "D"d4 :|
|:\
"D"F2FF- FDEF | "G"GFGA BAB=c |\
"Bm7"B2Bd- "D"d=cBA |"G"GBed "A"cAce |
"Bm7"d2dB- Bcd2 | "A/C#m"e2ec- cde2 |\
"G/Bm"gfed "A"efga- | "A7"agec "D"d4 :|
